T: Road To Glountane, The
M: 4/4
L: 1/8
K: Dmaj
|A2AB d2de|fdfa gfed|dB|:A2AB d2de|faaf edB2|b2 af defb|afed BddB|A2AB d2de|!faaf edB2|b2 af defb|afef d2:||:afab d'2 d'b|afed Bdde|feed feed|!fded Bddb|afab d'2 d'b|afed Bdde|feed feed|faef d4:|
